X: 18
T:Marcha de Breixo
M:4/4
L:1/8
Q:110
C:Trad
S:Rep: X.M.Budiño
R:Marcha
K:D
F2 | A2 {B}A2 {B}A2 G2 | B2 {c}B2 c2- d2 | A3 GF E2 F/2G/2 |1 A6 
:|2
A2 (3FAF D4- |: D3 FE3 E/2D/2 | E4- E3 F | A G2 F{G}F E2 C/2D/2 | E4- 
E3 F | A G2 F{G}F E2 C/2D/2 | EF GFA G2 E/2C/2 | D4- 
:| D3 
||

